setcps (175/60/4)

d1 
$ n "<af3>"
# s "cthulu?"
# room "<16 24>"
# sustain "<24 16 8>"


d2 
$ sometimes (jux rev)
$ splice "16" (slow "4" $ shuffle "<4 8>" $ run "16")
$ n "<0 1 0 2>"111
# s "amen"
# pan rand
# gain "0.7"


d4 
$ s "808bd_deep:9(3,5)"
# shape "0.5 0.7"

d3
$ splice "16" (slow "20" $  run "16")
#  s "ccru:1"
