setcps (150/60/4)

d1
$ slow 2 
$ n "a3 [b3 d3] a4 [c4 d4] e4 [g4 h4] a4 [<c4 ~> d4]"
# s "superfm"
# fmamp 1 1
# fmamp 2 0
# fmamp 3 0
# fmamp 4 0 
# fmamp 5 0
# fmamp 6 0
# fmfeedback 1 
# fmratio 1 "1"
# fmratio 2 "<0.0333>"
# gain 1.3


d2
$ s "909bd_tubem:2(4, 4)"
