setcps (130/60/4)

setcps (slow 8 $ sine)

xfade 1
-- $ palindrome
$ arp "<up>"
$ n "<f4'maj'8 c4'six'8 d4'min'8>"
# s "superfm"
# fmamp 1 1
# fmamp 2 0
# fmamp 3 0
# fmamp 4 0
# fmamp 5 0
# fmamp 6 0
# fmmod 1 2 "4"
# fmmod 1 3 "16"
# fmratio 2 "0.125"
# fmratio 3 "4"
# sustain "1"
# room (slow 4 sine + 1)
# gain 0.9

xfade 1 silence

d2
$ s "{909bd_var:8(4, 4), 909sd_mpc(4, 4), 909cy:1(4, 4)}"
# shape 0.5
