d1
$ slow 4
$ s "superfm*2"
# n 0.1
# fmamp 1 1 
# fmamp 2 2 
# fmamp 3 0
# fmamp 4 0
# fmamp 5 0
# fmamp 6 0
# fmfeedback 1
# fmmod 1 1 "3.33 2.22"
# fmmod 2 2 "0.3 0.5"
# fmmod 1 2 "1 2"
# fmmod 2 1 "1 2"
# fmratio 1 "0.4 0.02"
# lfmer 1 [0.25, 0.5, 0.7, 1]
# lfmel 1 [0, 0.25, 0.75, 0.1]
# lfmel 2 [1, 0.25, 0.75, 0.1]
# room square * 33


d2 
$ slow 4
$ n "0 1 2 3"
# s "modbd_sub"
