setcps (130 / 60/ 4)

d1
$ sometimes palindrome   
$ n (scale "dorian" $ "1 ~ 2 3 4 6  ~ 3 6 9 6 2 4 1 3 4" |-12 )
# sound "chainsaw"
# sustain "0.5 0.75 1.25"  
# gain "[0.1 1 1 1]*4"
# room sine 

d2 $ n "[7 ~ ~ ~]*4" # s "909bd_var" # shape 0.7

d2 silence

d3 $ s "909sd_mpc:1(2,4)"

d3 silence


d4 $ s "909ch:2*16" # gain "[0.5 0.6]*8"
