hush

d1 $ slow (sine + 1.5) $ n "0 1 3 5" # s "supernoise" # sustain 4 # gain (0.5 + (saw * 0.2))

d1 silence

d2 $ s "modbd_alien:11(5,8)" # shape saw + 0.8

d2 silence

d3 $ palindrome $ n "c3 <b4s b5 f4f> <f4f <f5 c3 f5s>> <e4 g4>" # s "superfm" # voice (run 6) # crush 2 # shape saw # gain (sine * 5)

d3 silence

d4 $ slow "1 2 4" $ s "modch_metal:14(16,4)" # speed "1 2 1 3" # shape 0.8 

d4 silence

d5 $ s "in" # gain 4

d5 silence
