setcps (122/60/4)

hush

d1
  $ cat[
    note "c ds g bf", note "c ds g bf",
    note "c f af c6", note "c f af c6"]
  # s "sinswarm" # pan (slow 4 $ range "-1" 1 $ sine) # gain 0.7

d1 silence

d2 $ s "modresonanthit_wood:17(5,8)"

d2 silence
